X: 5313
T: Bruach Na Carraige Baine
R: waltz
M: 3/4
K: Cmajor
|:cd|e4de|cgg2ge|d3e/d/cA|Gee2ed|c4dA|GEE3G|A6|A4:|GA||
c3d/c/AB|cdd3e|gaa2ag|e4ed|c3d/c/AB|cdd3e|a6|g4ge|
f4f2|egg2ge|d3e/d/cA|Gee2ed|c4dA|GEE3G|A6|A4||

